packages/core/src/svgs/tokens/mono/VEGA.svg

<svg width="24" height="24" viewBox="0 0 24 24" fill="none" xmlns="http://www.w3.org/2000/svg">
<path d="M3.66675 2H6.33343V16.6668H3.66675V2ZM9.00008 19.3335H6.33343V16.6668H9.00008V19.3335ZM11.6668 19.3335V22H9.00008V19.3335H11.6668ZM11.6668 19.3335V16.6668H14.3335V19.3335H11.6668ZM15.0002 2H17.6667V14.0001H15.0002V2ZM17.6667 14.0001H20.3334V16.6668H17.6667V14.0001Z" fill="white"/>
</svg>

<svg xmlns="http://www.w3.org/2000/svg" width="24" height="24" fill="none" viewBox="0 0 24 24">
    <path fill="#fff" d="M3.667 2h2.666v14.667H3.667zM9 19.334H6.333v-2.667H9zm2.667 0V22H9v-2.666zm0 0v-2.667h2.667v2.666zM15 2h2.667v12H15zm2.667 12h2.666v2.667h-2.666z"/>
</svg>
